X: 37046
T: Silver Heels Clog, The
R: hornpipe
M: 4/4
K: Gmajor
g2 dc BdcA|GBDG BDGB|ACEA cAfe|^decA F2 =df|
gGdc (3Bcd cA|GBDG B2 GB|ACEA c2 ed|^cd=cA G2:|
G,2 BG eBge|^decA FAFD|EBGE BGed|^cage d2 =c2|
BdGB DGBd|ceGc EGce|dbgd BdgG|AFcF G2:|

